packages/blockchain-info-components/src/Images/img/gold-approved.svg

<svg fill="none" height="63" viewBox="0 0 61 63" width="61" xmlns="http://www.w3.org/2000/svg" xmlns:xlink="http://www.w3.org/1999/xlink"><clipPath id="a"><path d="m0 15.1335h47.8664v47.8664h-47.8664z"/></clipPath><g clip-path="url(#a)"><path d="m23.9332 63c13.218 0 23.9332-10.7153 23.9332-23.9332 0-13.218-10.7152-23.9333-23.9332-23.9333-13.2179 0-23.9332 10.7153-23.9332 23.9333 0 13.2179 10.7153 23.9332 23.9332 23.9332z" fill="#f7d56e"/></g><path d="m30.5835 39.2086h3.936v8.928c-1.152.9173-2.496 1.6213-4.032 2.112-1.536.4906-3.1146.736-4.736.736-2.2826 0-4.3413-.4907-6.176-1.472-1.8346-1.0027-3.2746-2.3787-4.32-4.128-1.0453-1.7494-1.568-3.7227-1.568-5.92 0-2.1974.5227-4.1707 1.568-5.9201 1.0454-1.7493 2.4854-3.1146 4.32-4.096 1.856-1.0026 3.936-1.504 6.24-1.504 1.8774 0 3.584.3094 5.12.928 1.536.6187 2.8267 1.5254 3.872 2.7201l-2.624 2.5599c-1.7066-1.7066-3.7653-2.5599-6.176-2.5599-1.5786 0-2.9866.3306-4.224.992-1.216.6613-2.176 1.5893-2.88 2.784-.6826 1.1946-1.024 2.56-1.024 4.096 0 1.4933.3414 2.8373 1.024 4.032.704 1.1946 1.664 2.1333 2.88 2.816 1.2374.6826 2.6347 1.024 4.192 1.024 1.7494 0 3.2854-.384 4.608-1.152z" fill="#121d33"/><circle cx="46" cy="15" fill="#fff" r="13" stroke="#1a1835" stroke-width="4"/><path clip-rule="evenodd" d="m46 27c6.6274 0 12-5.3726 12-12 0-6.62742-5.3726-12-12-12s-12 5.37258-12 12c0 6.6274 5.3726 12 12 12zm-7.3431-11.3431 2.1213-2.1214 3 3 7.8787-7.87864 2.1213 2.12134-10 10z" fill="#59cd93" fill-rule="evenodd"/></svg>

<svg width="61" height="63" viewBox="0 0 61 63" fill="none" xmlns="http://www.w3.org/2000/svg">
<g clip-path="url(#clip0)">
<path d="M23.9332 63C37.1512 63 47.8664 52.2847 47.8664 39.0668C47.8664 25.8488 37.1512 15.1335 23.9332 15.1335C10.7153 15.1335 0 25.8488 0 39.0668C0 52.2847 10.7153 63 23.9332 63Z" fill="#F7D56E"/>
</g>
<path d="M30.5835 39.2086H34.5195V48.1366C33.3675 49.0539 32.0235 49.7579 30.4875 50.2486C28.9515 50.7392 27.3729 50.9846 25.7515 50.9846C23.4689 50.9846 21.4102 50.4939 19.5755 49.5126C17.7409 48.5099 16.3009 47.1339 15.2555 45.3846C14.2102 43.6352 13.6875 41.6619 13.6875 39.4646C13.6875 37.2672 14.2102 35.2939 15.2555 33.5445C16.3009 31.7952 17.7409 30.4299 19.5755 29.4485C21.4315 28.4459 23.5115 27.9445 25.8155 27.9445C27.6929 27.9445 29.3995 28.2539 30.9355 28.8725C32.4715 29.4912 33.7622 30.3979 34.8075 31.5926L32.1835 34.1525C30.4769 32.4459 28.4182 31.5926 26.0075 31.5926C24.4289 31.5926 23.0209 31.9232 21.7835 32.5846C20.5675 33.2459 19.6075 34.1739 18.9035 35.3686C18.2209 36.5632 17.8795 37.9286 17.8795 39.4646C17.8795 40.9579 18.2209 42.3019 18.9035 43.4966C19.6075 44.6912 20.5675 45.6299 21.7835 46.3126C23.0209 46.9952 24.4182 47.3366 25.9755 47.3366C27.7249 47.3366 29.2609 46.9526 30.5835 46.1846V39.2086Z" fill="#121D33"/>
<circle cx="46" cy="15" r="13" fill="white" stroke="#1A1835" stroke-width="4"/>
<path fill-rule="evenodd" clip-rule="evenodd" d="M46 27C52.6274 27 58 21.6274 58 15C58 8.37258 52.6274 3 46 3C39.3726 3 34 8.37258 34 15C34 21.6274 39.3726 27 46 27ZM38.6569 15.6569L40.7782 13.5355L43.7782 16.5355L51.6569 8.65686L53.7782 10.7782L43.7782 20.7782L38.6569 15.6569Z" fill="#59CD93"/>
<defs>
<clipPath id="clip0">
<rect width="47.8664" height="47.8664" fill="white" transform="translate(0 15.1335)"/>
</clipPath>
</defs>
</svg>
